module-10/img/icon-svg/instagram.svg

<svg version="1.1" xmlns="http://www.w3.org/2000/svg"
width="28" height="28">
<path fill="rgb(243,129,129)" stroke="none" paint-order="stroke fill markers" fill-rule="evenodd" d=" M 23.69989013671875 26.799668312072754 C 23.69989013671875 26.799668312072754 4.499908447265625 26.799668312072754 4.499908447265625 26.799668312072754 C 2.7327117919921875 26.799668312072754 1.2999114990234375 25.366769194602966 1.2999114990234375 23.59947156906128 C 1.2999114990234375 23.59947156906128 1.2999114990234375 4.399650454521179 1.2999114990234375 4.399650454521179 C 1.2999114990234375 2.632352828979492 2.7327117919921875 1.1994537115097046 4.499908447265625 1.1994537115097046 C 4.499908447265625 1.1994537115097046 23.69989013671875 1.1994537115097046 23.69989013671875 1.1994537115097046 C 25.467315673828125 1.1994537115097046 26.900001525878906 2.632352828979492 26.900001525878906 4.399650454521179 C 26.900001525878906 4.399650454521179 26.900001525878906 23.59947156906128 26.900001525878906 23.59947156906128 C 26.900001525878906 25.366769194602966 25.467315673828125 26.799668312072754 23.69989013671875 26.799668312072754 Z M 14.100013732910156 9.039240956306458 C 12.104393005371094 9.039240956306458 10.388809204101562 10.220661520957947 9.6016845703125 11.919387817382812 C 9.6016845703125 11.919387817382812 9.597221374511719 11.919387817382812 9.597221374511719 11.919387817382812 C 9.588981628417969 11.937361359596252 9.5833740234375 11.956392168998718 9.575363159179688 11.974214673042297 C 9.528213500976562 12.079186201095581 9.486557006835938 12.18702745437622 9.446731567382812 12.295472860336304 C 9.427619934082031 12.348034143447876 9.407135009765625 12.398631930351257 9.389739990234375 12.451042175292969 C 9.353233337402344 12.562508344650269 9.323249816894531 12.676391124725342 9.294525146484375 12.790878057479858 C 9.281021118164062 12.844496607780457 9.264999389648438 12.896906852722168 9.253211975097656 12.95112955570221 C 9.22723388671875 13.072111129760742 9.209037780761719 13.194905161857605 9.191986083984375 13.318907499313354 C 9.18511962890625 13.369052171707153 9.174591064453125 13.417837500572205 9.169212341308594 13.468586325645447 C 9.150558471679688 13.643186450004578 9.139915466308594 13.820203185081482 9.139915466308594 13.99963653087616 C 9.139915466308594 16.739015817642212 11.360641479492188 18.959276914596558 14.100013732910156 18.959276914596558 C 16.839271545410156 18.959276914596558 19.05999755859375 16.739015817642212 19.05999755859375 13.99963653087616 C 19.05999755859375 13.820203185081482 19.049354553222656 13.643186450004578 19.03070068359375 13.468586325645447 C 19.02532196044922 13.417837500572205 19.014793395996094 13.369052171707153 19.00792694091797 13.318907499313354 C 18.990875244140625 13.194905161857605 18.972679138183594 13.072111129760742 18.946701049804688 12.95112955570221 C 18.934913635253906 12.896906852722168 18.91889190673828 12.844496607780457 18.90538787841797 12.790878057479858 C 18.876663208007812 12.676391124725342 18.8466796875 12.562508344650269 18.81017303466797 12.451042175292969 C 18.79277801513672 12.398631930351257 18.772293090820312 12.348034143447876 18.75318145751953 12.295472860336304 C 18.713356018066406 12.18702745437622 18.67169952392578 12.079186201095581 18.624549865722656 11.974214673042297 C 18.616539001464844 11.956392168998718 18.610931396484375 11.937361359596252 18.602691650390625 11.919387817382812 C 18.602691650390625 11.919387817382812 18.598228454589844 11.919387817382812 18.598228454589844 11.919387817382812 C 17.81110382080078 10.220661520957947 16.09552001953125 9.039240956306458 14.100013732910156 9.039240956306458 Z M 24.019981384277344 5.359346985816956 C 24.019981384277344 4.652488350868225 23.446861267089844 4.07960057258606 22.739959716796875 4.07960057258606 C 22.739959716796875 4.07960057258606 20.179916381835938 4.07960057258606 20.179916381835938 4.07960057258606 C 19.47301483154297 4.07960057258606 18.900009155273438 4.652488350868225 18.900009155273438 5.359346985816956 C 18.900009155273438 5.359346985816956 18.900009155273438 7.919897079467773 18.900009155273438 7.919897079467773 C 18.900009155273438 8.626906752586365 19.47301483154297 9.19964349269867 20.179916381835938 9.19964349269867 C 20.179916381835938 9.19964349269867 22.739959716796875 9.19964349269867 22.739959716796875 9.19964349269867 C 23.446861267089844 9.19964349269867 24.019981384277344 8.626906752586365 24.019981384277344 7.919897079467773 C 24.019981384277344 7.919897079467773 24.019981384277344 5.359346985816956 24.019981384277344 5.359346985816956 Z M 24.019981384277344 11.919387817382812 C 24.019981384277344 11.919387817382812 21.660324096679688 11.919387817382812 21.660324096679688 11.919387817382812 C 21.84239959716797 12.582143306732178 21.940017700195312 13.279637575149536 21.940017700195312 13.99963653087616 C 21.940017700195312 18.329900860786438 18.429885864257812 21.839423775672913 14.100013732910156 21.839423775672913 C 9.770027160644531 21.839423775672913 6.260009765625 18.329900860786438 6.260009765625 13.99963653087616 C 6.260009765625 13.279637575149536 6.357627868652344 12.582143306732178 6.539588928222656 11.919387817382812 C 6.539588928222656 11.919387817382812 4.179931640625 11.919387817382812 4.179931640625 11.919387817382812 C 4.179931640625 11.919387817382812 4.179931640625 22.63932192325592 4.179931640625 22.63932192325592 C 4.179931640625 23.346784710884094 4.7530517578125 23.91967248916626 5.459953308105469 23.91967248916626 C 5.459953308105469 23.91967248916626 22.739959716796875 23.91967248916626 22.739959716796875 23.91967248916626 C 23.446861267089844 23.91967248916626 24.019981384277344 23.346784710884094 24.019981384277344 22.63932192325592 C 24.019981384277344 22.63932192325592 24.019981384277344 11.919387817382812 24.019981384277344 11.919387817382812 Z"/>
</svg>

<svg xmlns="http://www.w3.org/2000/svg" width="28" height="28"><path fill="#F38181" paint-order="stroke fill markers" fill-rule="evenodd" d="M23.7 26.8H4.5a3.2 3.2 0 0 1-3.2-3.2V4.4a3.2 3.2 0 0 1 3.2-3.2h19.2a3.2 3.2 0 0 1 3.2 3.2v19.2a3.2 3.2 0 0 1-3.2 3.2zM14.1 9.04a4.957 4.957 0 0 0-4.498 2.88h-.005l-.022.054a4.935 4.935 0 0 0-.128.321c-.02.053-.04.104-.057.156a4.999 4.999 0 0 0-.095.34c-.014.053-.03.106-.042.16a4.983 4.983 0 0 0-.061.368c-.007.05-.017.099-.023.15a4.96 4.96 0 1 0 9.861 0c-.005-.051-.015-.1-.022-.15a4.983 4.983 0 0 0-.061-.368c-.012-.054-.028-.107-.042-.16a4.999 4.999 0 0 0-.095-.34c-.017-.052-.038-.103-.057-.156a4.935 4.935 0 0 0-.128-.32l-.022-.056h-.005A4.957 4.957 0 0 0 14.1 9.04zm9.92-3.68a1.28 1.28 0 0 0-1.28-1.28h-2.56a1.28 1.28 0 0 0-1.28 1.28v2.56c0 .707.573 1.28 1.28 1.28h2.56a1.28 1.28 0 0 0 1.28-1.28V5.36zm0 6.56h-2.36a7.84 7.84 0 0 1-7.56 9.92 7.84 7.84 0 0 1-7.56-9.92H4.18v10.72c0 .707.573 1.28 1.28 1.28h17.28a1.28 1.28 0 0 0 1.28-1.28V11.92z"/></svg>
